src/assets/img/custom-paperwallet/icon-fit-to-height.svg

<?xml version="1.0" encoding="UTF-8"?>
<svg width="16px" height="16px" viewBox="0 0 16 16" version="1.1" xmlns="http://www.w3.org/2000/svg" xmlns:xlink="http://www.w3.org/1999/xlink">
    <!-- Generator: Sketch 61.2 (89653) - https://sketch.com -->
    <title>icon-fit-to-height</title>
    <desc>Created with Sketch.</desc>
    <g id="icon-fit-to-height" stroke="none" stroke-width="1" fill="none" fill-rule="evenodd">
        <path d="M15,0 C15.5522847,-1.01453063e-16 16,0.44771525 16,1 L16,15 C16,15.5522847 15.5522847,16 15,16 L1,16 C0.44771525,16 6.76353751e-17,15.5522847 0,15 L0,1 C-6.76353751e-17,0.44771525 0.44771525,1.01453063e-16 1,0 L15,0 Z M14.75,1.25 L1.25,1.25 L1.25,14.75 L14.75,14.75 L14.75,1.25 Z M10.5,10.5 C10.7761424,10.5 11,10.7238576 11,11 C11,11.1573787 10.9259029,11.3055728 10.8,11.4 L8.3,13.275 C8.12222222,13.4083333 7.87777778,13.4083333 7.7,13.275 L5.2,11.4 C4.9790861,11.2343146 4.93431458,10.9209139 5.1,10.7 C5.19442719,10.5740971 5.34262135,10.5 5.5,10.5 L10.5,10.5 Z M8.3,2.725 L10.8,4.6 C11.0209139,4.76568542 11.0656854,5.0790861 10.9,5.3 C10.8055728,5.42590292 10.6573787,5.5 10.5,5.5 L5.5,5.5 C5.22385763,5.5 5,5.27614237 5,5 C5,4.84262135 5.07409708,4.69442719 5.2,4.6 L7.7,2.725 C7.87777778,2.59166667 8.12222222,2.59166667 8.3,2.725 Z" id="Combined-Shape" fill="#FFFFFF"></path>
    </g>
</svg>

<svg xmlns="http://www.w3.org/2000/svg" width="16" height="16"><path d="M15 0a1 1 0 0 1 1 1v14a1 1 0 0 1-1 1H1a1 1 0 0 1-1-1V1a1 1 0 0 1 1-1h14zm-.25 1.25H1.25v13.5h13.5V1.25zM10.5 10.5a.5.5 0 0 1 .3.9l-2.5 1.875a.5.5 0 0 1-.6 0L5.2 11.4a.5.5 0 0 1 .3-.9h5zM8.3 2.725L10.8 4.6a.5.5 0 0 1-.3.9h-5a.5.5 0 0 1-.3-.9l2.5-1.875a.5.5 0 0 1 .6 0z" fill="#fff" fill-rule="evenodd"/></svg>
